front/assets/images/directive-nis2-avec-bulle-fond-gris.svg

<svg width="316" height="178" viewBox="0 0 316 178" fill="none" xmlns="http://www.w3.org/2000/svg">
    <g clip-path="url(#clip0_12906_16497)">
        <rect width="316" height="177.75" fill="#F6F6F6"/>
        <path fill-rule="evenodd" clip-rule="evenodd" d="M165.311 139.346C195.883 136.86 233.387 141.409 250.928 124.871C268.362 108.434 248.722 88.7706 237.271 71.502C228.093 57.66 215.788 45.0361 194.007 39.027C170.271 32.4789 143.179 31.615 118.383 38.7033C88.909 47.129 60.2683 60.183 51.7484 79.6942C42.4118 101.076 48.7644 125.704 74.4915 139.218C98.2031 151.673 133.447 141.937 165.311 139.346Z" fill="white"/>
        <path d="M100.02 100.811L80.0136 68.3653H68.3813V113.25H77.4572V80.8049L97.464 113.25H109.096V68.3653H100.02V100.811Z" fill="#161616"/>
        <path d="M129.738 68.3653H120.662V113.25H129.738V68.3653Z" fill="#161616"/>
        <path d="M153.706 75.0339C157.093 75.0339 160.034 77.2789 162.654 80.6769L169.301 74.6502C165.466 70.0987 160.353 67.0842 153.642 67.0842C145.079 67.0842 139.199 72.9831 139.199 80.1014C139.199 95.2976 159.524 93.0548 159.524 101.327C159.524 104.533 157.35 106.456 153.772 106.456C150.194 106.456 146.549 104.405 143.865 100.941L137.282 107.031C141.245 111.777 146.294 114.534 153.836 114.534C162.081 114.534 168.6 109.468 168.728 101.005C168.728 85.6167 148.402 87.9234 148.402 79.7795C148.402 77.087 150.51 75.0339 153.706 75.0339Z" fill="#161616"/>
        <path d="M214.116 57.2629C215.216 57.2629 216.304 57.5529 217.26 58.0987L241.082 71.7395C243.054 72.8677 244.28 74.9847 244.28 77.2639V104.354C244.28 106.633 243.056 108.748 241.082 109.878L217.26 123.519C216.304 124.067 215.218 124.355 214.116 124.355C213.015 124.355 211.929 124.065 210.973 123.519L187.151 109.878C185.179 108.75 183.953 106.633 183.953 104.354V77.2639C183.953 74.9847 185.177 72.87 187.151 71.7395L210.973 58.0987C211.929 57.5506 213.015 57.2629 214.116 57.2629ZM214.116 54.0656C212.487 54.0656 210.857 54.4835 209.395 55.3217L185.573 68.9625C182.602 70.6639 180.768 73.8314 180.768 77.2639V104.354C180.768 107.786 182.602 110.954 185.573 112.655L209.395 126.296C210.859 127.134 212.489 127.552 214.116 127.552C215.744 127.552 217.376 127.134 218.838 126.296L242.66 112.655C245.63 110.954 247.465 107.786 247.465 104.354V77.2639C247.465 73.8314 245.63 70.6639 242.66 68.9625L218.838 55.3217C217.374 54.4835 215.744 54.0656 214.116 54.0656Z" fill="#FDC82E"/>
        <path d="M218.27 92.9093C221.251 89.9999 224.01 86.7159 224.01 82.3974C224.01 77.0899 219.792 73.2396 213.981 73.2396C208.914 73.2396 204.919 75.569 202.108 80.1615L201.615 80.9677L207.775 84.7359L208.259 83.9183C209.869 81.2098 211.37 80.1046 213.444 80.1046C215.314 80.1046 216.43 81.1778 216.43 82.9797C216.43 84.8912 215.352 86.2022 213.076 88.5316L202.879 98.6004V105H224.754V98.0524H212.962L218.27 92.9116V92.9093Z" fill="#161616"/>
        <path d="M68.4949 60.8733V50.9625H69.9002V59.6557H74.1161V60.8733H68.4949Z" fill="#161616"/>
        <path d="M78.2443 61.0715C76.7643 61.0715 75.7626 60.2928 75.7626 59.0752C75.7626 57.9991 76.6297 57.2346 78.2294 56.9798L80.7709 56.5833V56.0878C80.7709 55.0967 80.0234 54.5304 78.947 54.5304C78.0799 54.5304 77.3772 54.9126 76.9138 55.5214L75.957 54.8277C76.6148 53.9782 77.6762 53.4543 78.9918 53.4543C80.9055 53.4543 82.0417 54.5162 82.0417 56.0878V60.8733H80.7709V59.9671C80.2028 60.6609 79.2161 61.0715 78.2443 61.0715ZM77.0483 59.0327C77.0483 59.6415 77.5716 60.0804 78.4536 60.0804C79.4553 60.0804 80.2775 59.6273 80.7709 58.8628V57.4611L78.5433 57.8151C77.5118 57.985 77.0483 58.4239 77.0483 59.0327Z" fill="#161616"/>
        <path d="M87.9777 57.3054C87.9777 55.2241 89.4876 53.4543 91.8498 53.4543C92.971 53.4543 93.8531 53.8649 94.5258 54.587V50.2546H95.7966V60.8733H94.5258V60.0238C93.8531 60.7459 92.971 61.1564 91.8498 61.1564C89.4876 61.1564 87.9777 59.3867 87.9777 57.3054ZM89.3232 57.3054C89.3232 58.8203 90.3996 60.0238 91.9993 60.0238C93.0458 60.0238 93.9727 59.5424 94.5258 58.7071V55.9037C93.9428 55.0542 93.0308 54.587 91.9993 54.587C90.3996 54.587 89.3232 55.7905 89.3232 57.3054Z" fill="#161616"/>
        <path d="M99.1182 51.8828C98.6248 51.8828 98.2212 51.5005 98.2212 51.0333C98.2212 50.5802 98.6248 50.1979 99.1182 50.1979C99.6116 50.1979 100 50.5802 100 51.0333C100 51.5005 99.6116 51.8828 99.1182 51.8828ZM98.4753 60.8733V53.7375H99.7461V60.8733H98.4753Z" fill="#161616"/>
        <path d="M102.432 60.8733V53.7375H103.703V54.6295C104.256 54.0065 104.943 53.5959 105.9 53.5959C106.139 53.5959 106.364 53.6242 106.543 53.6809V54.856C106.319 54.7994 106.095 54.7711 105.796 54.7711C104.809 54.7711 104.166 55.2524 103.703 55.9745V60.8733H102.432Z" fill="#161616"/>
        <path d="M114.619 59.6981C113.916 60.5901 112.795 61.1564 111.39 61.1564C108.848 61.1564 107.279 59.3867 107.279 57.3054C107.279 55.1392 108.744 53.4543 111.076 53.4543C113.124 53.4543 114.455 54.8135 114.455 56.5692C114.455 56.8523 114.41 57.1213 114.365 57.3195H108.579C108.624 59.0327 109.775 60.0663 111.39 60.0663C112.362 60.0663 113.184 59.6415 113.677 59.0044L114.619 59.6981ZM111.046 54.4737C109.805 54.4737 108.938 55.1675 108.669 56.3993H113.184C113.139 55.3515 112.376 54.4737 111.046 54.4737Z" fill="#161616"/>
        <path d="M120.047 60.0238C120.974 60.0238 121.737 59.599 122.2 58.9761L123.202 59.6981C122.499 60.5901 121.408 61.1564 120.032 61.1564C117.536 61.1564 115.936 59.3867 115.936 57.3054C115.936 55.2241 117.536 53.4543 120.032 53.4543C121.393 53.4543 122.499 54.0348 123.202 54.9126L122.2 55.6347C121.737 55.0117 120.974 54.587 120.032 54.587C118.418 54.587 117.267 55.7905 117.267 57.3054C117.267 58.8345 118.418 60.0238 120.047 60.0238Z" fill="#161616"/>
        <path d="M125.349 58.4805V54.8277H123.929V53.7375H125.349V51.9536H126.635V53.7375H129.251V54.8277H126.635V58.4805C126.635 59.599 127.233 59.9105 128.145 59.9105C128.638 59.9105 128.982 59.8539 129.266 59.7406V60.8166C128.907 60.9582 128.503 61.0149 127.965 61.0149C126.291 61.0149 125.349 60.222 125.349 58.4805Z" fill="#161616"/>
        <path d="M131.836 51.8828C131.343 51.8828 130.939 51.5005 130.939 51.0333C130.939 50.5802 131.343 50.1979 131.836 50.1979C132.33 50.1979 132.718 50.5802 132.718 51.0333C132.718 51.5005 132.33 51.8828 131.836 51.8828ZM131.193 60.8733V53.7375H132.464V60.8733H131.193Z" fill="#161616"/>
        <path d="M134.014 53.7375H135.389L137.796 59.6132L140.203 53.7375H141.578L138.633 60.8733H136.959L134.014 53.7375Z" fill="#161616"/>
        <path d="M149.717 59.6981C149.014 60.5901 147.893 61.1564 146.488 61.1564C143.946 61.1564 142.376 59.3867 142.376 57.3054C142.376 55.1392 143.841 53.4543 146.174 53.4543C148.222 53.4543 149.552 54.8135 149.552 56.5692C149.552 56.8523 149.507 57.1213 149.463 57.3195H143.677C143.722 59.0327 144.873 60.0663 146.488 60.0663C147.459 60.0663 148.282 59.6415 148.775 59.0044L149.717 59.6981ZM146.144 54.4737C144.903 54.4737 144.036 55.1675 143.767 56.3993H148.282C148.237 55.3515 147.474 54.4737 146.144 54.4737Z" fill="#161616"/>
    </g>
    <defs>
        <clipPath id="clip0_12906_16497">
            <rect width="316" height="177.75" fill="white"/>
        </clipPath>
    </defs>
</svg>

<svg xmlns="http://www.w3.org/2000/svg" width="316" height="178" fill="none"><g clip-path="url(#a)"><path fill="#F6F6F6" d="M0 0h316v177.75H0z"/><path fill="#fff" fill-rule="evenodd" d="M165.311 139.346c30.572-2.486 68.076 2.063 85.617-14.475 17.434-16.437-2.206-36.1-13.657-53.369-9.178-13.842-21.483-26.466-43.264-32.475-23.736-6.548-50.828-7.412-75.624-.324-29.474 8.426-58.115 21.48-66.635 40.991-9.336 21.382-2.984 46.01 22.744 59.524 23.711 12.455 58.955 2.719 90.819.128" clip-rule="evenodd"/><path fill="#161616" d="M100.02 100.811 80.014 68.365H68.38v44.885h9.076V80.805l20.007 32.445h11.632V68.365h-9.076zm29.718-32.446h-9.076v44.885h9.076zm23.968 6.669c3.387 0 6.328 2.245 8.948 5.643l6.647-6.027c-3.835-4.551-8.948-7.566-15.659-7.566-8.563 0-14.443 5.9-14.443 13.017 0 15.197 20.325 12.954 20.325 21.226 0 3.206-2.174 5.129-5.752 5.129s-7.223-2.051-9.907-5.515l-6.583 6.09c3.963 4.746 9.012 7.503 16.554 7.503 8.245 0 14.764-5.066 14.892-13.529 0-15.388-20.326-13.082-20.326-21.225 0-2.693 2.108-4.746 5.304-4.746"/><path fill="#FDC82E" d="M214.116 57.263c1.1 0 2.188.29 3.144.836l23.822 13.64a6.38 6.38 0 0 1 3.198 5.525v27.09a6.37 6.37 0 0 1-3.198 5.524l-23.822 13.641a6.33 6.33 0 0 1-6.287 0l-23.822-13.641a6.38 6.38 0 0 1-3.198-5.524v-27.09a6.38 6.38 0 0 1 3.198-5.524l23.822-13.641a6.3 6.3 0 0 1 3.143-.836m0-3.197a9.5 9.5 0 0 0-4.721 1.256l-23.822 13.64a9.56 9.56 0 0 0-4.805 8.302v27.09c0 3.432 1.834 6.6 4.805 8.301l23.822 13.641a9.5 9.5 0 0 0 9.443 0l23.822-13.641a9.57 9.57 0 0 0 4.805-8.301v-27.09c0-3.433-1.835-6.6-4.805-8.301l-23.822-13.641a9.5 9.5 0 0 0-4.722-1.256"/><path fill="#161616" d="M218.27 92.91c2.981-2.91 5.74-6.194 5.74-10.513 0-5.307-4.218-9.157-10.029-9.157-5.067 0-9.062 2.329-11.873 6.922l-.493.806 6.16 3.768.484-.818c1.61-2.708 3.111-3.813 5.185-3.813 1.87 0 2.986 1.073 2.986 2.875 0 1.911-1.078 3.222-3.354 5.552L202.879 98.6v6.4h21.875v-6.948h-11.792l5.308-5.14zM68.495 60.873v-9.91H69.9v8.693h4.216v1.217zm9.749.199c-1.48 0-2.481-.78-2.481-1.997 0-1.076.867-1.84 2.466-2.095l2.542-.397v-.495c0-.991-.748-1.558-1.824-1.558-.867 0-1.57.383-2.033.991l-.957-.693c.658-.85 1.72-1.374 3.035-1.374 1.913 0 3.05 1.062 3.05 2.634v4.785H80.77v-.906c-.568.694-1.555 1.105-2.527 1.105m-1.196-2.04c0 .61.524 1.048 1.406 1.048 1.001 0 1.824-.453 2.317-1.217V57.46l-2.228.354c-1.031.17-1.495.609-1.495 1.218m10.931-1.727c0-2.08 1.51-3.85 3.872-3.85 1.121 0 2.003.41 2.676 1.132v-4.332h1.27v10.618h-1.27v-.85c-.673.723-1.555 1.133-2.676 1.133-2.362 0-3.872-1.77-3.872-3.85m1.345 0c0 1.515 1.077 2.719 2.676 2.719 1.047 0 1.974-.482 2.527-1.317v-2.803c-.583-.85-1.495-1.317-2.527-1.317-1.6 0-2.676 1.203-2.676 2.718m9.795-5.423c-.493 0-.897-.383-.897-.85 0-.453.404-.835.897-.835.494 0 .882.382.882.835 0 .468-.388.85-.882.85m-.643 8.99v-7.135h1.271v7.135zm3.957 0v-7.135h1.271v.892c.553-.623 1.24-1.034 2.197-1.034.239 0 .464.028.643.085v1.175a3 3 0 0 0-.747-.085c-.987 0-1.63.481-2.093 1.203v4.9zm12.187-1.175c-.703.892-1.824 1.458-3.229 1.458-2.542 0-4.111-1.77-4.111-3.85 0-2.167 1.465-3.852 3.797-3.852 2.048 0 3.379 1.36 3.379 3.115 0 .283-.045.552-.09.75h-5.786c.045 1.714 1.196 2.747 2.811 2.747.972 0 1.794-.425 2.287-1.062zm-3.573-5.224c-1.241 0-2.108.694-2.377 1.925h4.515c-.045-1.047-.808-1.925-2.138-1.925m9.001 5.55c.927 0 1.69-.425 2.153-1.048l1.002.722c-.703.892-1.794 1.458-3.17 1.458-2.496 0-4.096-1.77-4.096-3.85 0-2.082 1.6-3.852 4.096-3.852 1.361 0 2.467.58 3.17 1.459l-1.002.722c-.463-.623-1.226-1.048-2.168-1.048-1.614 0-2.765 1.203-2.765 2.718 0 1.53 1.151 2.719 2.78 2.719m5.302-1.544v-3.652h-1.42v-1.09h1.42v-1.784h1.286v1.783h2.616v1.09h-2.616v3.654c0 1.118.598 1.43 1.51 1.43.493 0 .837-.057 1.121-.17v1.076c-.359.141-.763.198-1.301.198-1.674 0-2.616-.793-2.616-2.535m6.487-6.597c-.493 0-.897-.383-.897-.85 0-.453.404-.835.897-.835.494 0 .882.382.882.835 0 .468-.388.85-.882.85m-.643 8.99v-7.135h1.271v7.135zm2.821-7.135h1.375l2.407 5.875 2.407-5.876h1.375l-2.945 7.136h-1.674zm15.703 5.96c-.703.892-1.824 1.458-3.229 1.458-2.542 0-4.112-1.77-4.112-3.85 0-2.167 1.465-3.852 3.798-3.852 2.048 0 3.378 1.36 3.378 3.115 0 .283-.045.552-.089.75h-5.786c.045 1.714 1.196 2.747 2.811 2.747.971 0 1.794-.425 2.287-1.062zm-3.573-5.224c-1.241 0-2.108.694-2.377 1.925h4.515c-.045-1.047-.808-1.925-2.138-1.925"/></g><defs><clipPath id="a"><path fill="#fff" d="M0 0h316v177.75H0z"/></clipPath></defs></svg>
